X:122
T:A Waltz
O:No 122 Wm Clarke MS  Feltwell, Norfolk
I:abc2nwc
M:3/4
L:1/8
K:D
ab c'd' c'b|ba fA fA|fg eA eA|ba fA fA|
ab c'd' c'b|ba fA fA|fg eA eA|d4z2:|
|:fg eA eA|ba fA fA|fg eA eA|ba fA fA|
ab c'd' c'b|ba fA fA|fg eA eA|d4z2:|

